icons/op-indent-24.svg

<svg width="24" height="24" viewBox="0 0 24 24" fill="none" xmlns="http://www.w3.org/2000/svg">
<path d="M3 6C3 5.58579 3.33579 5.25 3.75 5.25H20.25C20.6642 5.25 21 5.58579 21 6C21 6.41421 20.6642 6.75 20.25 6.75H3.75C3.33579 6.75 3 6.41421 3 6Z" fill="#636C76"/>
<path d="M8 10C8 9.5858 8.33579 9.25 8.75 9.25H20.25C20.6642 9.25 21 9.5858 21 10C21 10.4142 20.6642 10.75 20.25 10.75H8.75C8.33579 10.75 8 10.4142 8 10Z" fill="#636C76"/>
<path d="M3 18C3 17.5858 3.33579 17.25 3.75 17.25H20.25C20.6642 17.25 21 17.5858 21 18C21 18.4142 20.6642 18.75 20.25 18.75H3.75C3.33579 18.75 3 18.4142 3 18Z" fill="#636C76"/>
<path d="M8.75 13.25C8.33579 13.25 8 13.5858 8 14C8 14.4142 8.33579 14.75 8.75 14.75H20.25C20.6642 14.75 21 14.4142 21 14C21 13.5858 20.6642 13.25 20.25 13.25H8.75Z" fill="#636C76"/>
<path d="M5.92673 12.1768L4.53029 13.5732C4.3728 13.7307 4.10351 13.6192 4.10351 13.3965V10.6035C4.10351 10.3808 4.37279 10.2693 4.53029 10.4268L5.92673 11.8232C6.02436 11.9208 6.02436 12.0791 5.92673 12.1768Z" fill="#636C76"/>
</svg>

<svg xmlns="http://www.w3.org/2000/svg" width="24" height="24" viewBox="0 0 24 24"><path d="M3 6a.75.75 0 0 1 .75-.75h16.5a.75.75 0 0 1 0 1.5H3.75A.75.75 0 0 1 3 6Zm5 4a.75.75 0 0 1 .75-.75h11.5a.75.75 0 0 1 0 1.5H8.75A.75.75 0 0 1 8 10Zm-5 8a.75.75 0 0 1 .75-.75h16.5a.75.75 0 0 1 0 1.5H3.75A.75.75 0 0 1 3 18Zm5.75-4.75a.75.75 0 0 0 0 1.5h11.5a.75.75 0 0 0 0-1.5H8.75Zm-2.823-1.073L4.53 13.573a.25.25 0 0 1-.426-.177v-2.792a.25.25 0 0 1 .426-.177l1.397 1.396a.252.252 0 0 1 0 .354Z"/></svg>
